X:72
T:Berdjro Nonoun
M:6/8
L:1/8
N:Assez anim
N:La Bourre 4th edition 1929, page 74
Z:Steve Mansfield www.lesession.co.uk May 2012
K:Bb
F | B2 B c2 c | e3 d2 (d/e/) | f2 d c2 A | 
B3 - B2 B | (cd) e c2 (B/A/) | (GA) B !fermata! c2 B | G3 !fermata! F2 F | 
B2 (c/d/) e2 d | B B c e2 d | B B c e2 d | !fermata! B6 |]
<end>
<start>
